src/img/img-price-1.svg

<svg width="256" height="256" viewBox="0 0 256 256" fill="none" xmlns="http://www.w3.org/2000/svg">
<path d="M214.016 190.36C221.713 185.06 231.971 183.995 237.965 175.878C240.842 176.279 242.228 174.406 243.453 172.287C243.181 170.774 242.301 169.254 244.284 168.024C245.254 167.423 245.711 166.134 245.704 164.855C244.619 163.416 245.576 161.271 244.015 159.991L241.905 159.735C240.147 158.949 238.972 160.187 237.656 160.946C235.985 162.501 233.325 162.413 231.896 164.38C231.147 166.063 230.408 167.956 228.349 168.2C225.065 168.584 223.364 170.708 221.96 173.253C221.864 172.76 222.344 172.613 222.472 172.268C223.588 170.395 224.788 168.838 227.177 168.3C228.915 167.905 231.135 166.925 230.417 164.55C229.77 162.409 227.72 162.853 225.993 163.37C225.24 163.596 224.37 163.286 223.707 163.882C216.599 165.7 211.245 170.31 205.956 175.025C205.249 175.025 205.019 175.441 205.032 176.074C205.793 178.565 207.738 180.387 208.787 182.717C210.738 185.13 210.552 189 214.016 190.36Z" fill="#FACBB7"/>
<path d="M232.52 164.691C234.013 162.975 236.978 163.859 238.122 161.523C239.002 160.213 240.239 158.997 239.26 157.197L238.819 156.792C237.749 156.69 236.669 156.426 235.628 156.941L226.933 161.485C228.06 163.84 230.872 163.249 232.52 164.691Z" fill="#F9C8B6"/>
<path d="M232.52 164.691C231.496 162.172 228.722 162.682 226.932 161.485L223.713 163.887C225.761 164.416 229.08 162.511 229.675 165.03C230.159 167.078 226.743 167.418 224.855 168.131C222.689 168.947 222.278 171.013 221.309 172.696C220.741 173.65 220.76 174.31 222.113 174.303C224.078 172.036 225.29 169.055 229.192 168.997C231.29 168.969 232.244 166.794 232.52 164.691Z" fill="#F7B6A7"/>
<path d="M222.113 174.303C221.473 173.955 221.326 173.358 221.309 172.696C220.5 173.395 219.483 174.456 220.172 175.277C221.094 176.376 221.613 174.993 222.113 174.303Z" fill="#F9C1AF"/>
<path d="M140.229 56.0115C140.229 56.0115 139.4 26.3078 116.189 24.512C116.189 24.512 116.042 9.66399 110.249 5.85983C105.862 2.98239 99.6109 2.95807 94.9133 3.23455C90.2157 3.51103 75.7031 3.10654 75.1501 20.0973C74.5971 37.088 75.2679 53.2992 75.8477 59.6032C76.3597 65.1904 83.7223 86.1299 84.6899 87.5072C85.6576 88.8845 98.6419 79.0797 99.0579 74.3821C99.4739 69.6845 98.7878 67.3421 99.8938 65.4029C101 63.4637 103.894 60.8435 103.894 56.2841L140.229 56.0115Z" fill="#413277"/>
<path d="M140.229 56.0115C140.229 56.0115 146.712 94.6495 135.348 105.088C123.985 115.526 110.945 129.865 110.945 129.865L85.0496 110.676C85.0496 110.676 87.7965 103.818 87.0464 97.2364C86.2963 90.6546 85.0496 87.6556 85.0496 87.6556L90.4499 84.5452C90.464 83.8131 85.8163 77.6332 85.4285 75.3919C85.0445 73.2006 86.6752 69.2479 90.7277 70.0979C94.4717 70.8825 97.6525 78.6636 98.3693 76.3519C99.0861 74.0403 98.592 67.4572 99.7593 65.678C100.927 63.8988 103.831 60.9305 103.894 56.2995L140.229 56.0115Z" fill="#FACCB8"/>
<path d="M143.125 85.7894H123.278C123.278 85.7894 128.654 81.1648 134.63 81.1648C140.769 81.1648 143.125 85.7894 143.125 85.7894Z" fill="url(#paint0_linear)"/>
<path d="M108.915 126.382C108.915 126.382 107.586 119.463 102.067 117.038C96.4646 114.582 89.2594 111.707 85.8572 108.224C85.8572 108.224 84.4786 115.793 79.4981 119.684C74.5177 123.575 119.032 137.272 119.032 137.272L127.437 117.511L117.545 116.246C117.545 116.246 109.696 117.665 108.915 126.382Z" fill="#FFFDFE"/>
<path d="M133.754 126.353C133.754 126.353 149.813 135.259 155.834 152.32C161.855 169.381 168.074 184.832 171.887 189.44C171.887 189.44 193.961 186.228 204.998 175.593C204.998 175.593 221.052 201.079 221.654 211.715C221.654 211.715 184.452 264.982 144.769 243.885V252.928C144.769 252.928 31.8733 252.672 18.1863 197.171C18.1863 197.171 30.8698 146.2 40.1626 137.277C49.4554 128.355 65.28 124.938 71.3063 122.752C77.3325 120.566 81.0138 118.477 81.8535 117.286C81.8535 117.286 92.5722 131.812 105.24 130.927C117.763 130.044 120.413 122.973 121.151 121.5C121.888 120.027 133.754 126.353 133.754 126.353Z" fill="url(#paint1_linear)"/>
<path d="M135.529 127.453C136.348 144.366 153.485 183.611 169.22 185.108L168.617 184.092C164.977 176.998 160.348 165.108 155.834 152.316C151.186 139.149 140.556 130.838 135.949 127.732L135.529 127.453Z" fill="url(#paint2_linear)"/>
<path d="M70.4153 123.063C63.8387 125.263 49.0291 128.764 40.1626 137.277C34.8583 142.371 28.4506 161.161 23.9258 176.355L23.8618 176.571C30.5946 175.464 41.033 163.334 46.4973 157.051C51.9616 150.767 60.5683 145.848 66.7213 139.018C72.8742 132.188 70.4333 123.118 70.4333 123.118L70.4153 123.063Z" fill="url(#paint3_linear)"/>
<path d="M57.5808 236.511L59.0477 156.28L48.8307 232.262C48.8307 232.262 53.28 235.392 57.5808 236.511Z" fill="#E63548"/>
<path d="M144.768 243.886C152.948 248.238 161.024 249.425 168.69 248.571L168.708 248.531C151.124 217.876 144.772 172.914 144.772 172.914V243.886H144.768Z" fill="#E63548"/>
<path opacity="0.25" d="M114.633 103.56C114.633 103.56 104.767 102.964 99.9015 98.2349C99.9015 98.2349 99.2257 101.883 102.063 104.586C104.901 107.29 114.246 116.411 113.56 129.012C113.56 129.012 120.229 126.179 121.151 121.501C122.072 116.824 114.633 103.56 114.633 103.56Z" fill="#212120"/>
<path opacity="0.7" d="M120.285 115.873C126.045 115.562 114.633 103.56 114.633 103.56C114.633 103.56 104.767 102.964 99.9015 98.2349C99.9015 98.2349 99.2257 101.883 102.063 104.586C104.1 106.525 109.487 111.766 112.11 119.226C112.11 119.226 114.363 116.195 120.285 115.873Z" fill="#F49D8B"/>
<path d="M116.145 23.2012H105.445C105.701 15.6364 103.808 9.88027 102.874 7.53531C102.819 7.39844 102.798 7.25032 102.813 7.10368C102.829 6.95704 102.879 6.81629 102.961 6.69351C103.042 6.57074 103.153 6.46962 103.282 6.39886C103.411 6.32811 103.556 6.28982 103.703 6.28731C105.712 6.24635 110.892 6.34491 110.892 6.34491C110.892 6.34491 111.74 7.11291 112.138 7.71323C113.13 9.21595 115.571 12.8179 116.145 23.2012Z" fill="#7C61A7"/>
<path d="M102.509 23.3356C102.509 23.3356 101.462 7.84765 99.3816 6.61501C99.3816 6.61501 90.6879 6.12861 86.2181 14.1952C84.9035 16.567 84.3096 19.2704 84.3096 21.9827V30.5676C84.3096 30.5676 92.3455 24.1677 102.509 23.3356Z" fill="#7C61A7"/>
<path d="M133.754 126.353C133.754 126.353 121.887 120.028 121.151 121.501C120.415 122.975 117.763 130.045 105.24 130.929C92.5683 131.813 81.8534 117.288 81.8534 117.288C81.0138 118.478 78.88 119.858 73.0458 122.521L73.1226 122.607C80.8845 131.277 90.8122 142.382 107.378 142.363C123.133 142.346 133.706 126.42 133.706 126.42L133.754 126.353Z" fill="url(#paint4_linear)"/>
<path d="M114.633 103.56C114.633 103.56 122.111 102.456 125.911 99.5149C129.711 96.5734 130.913 95.3472 133.207 95.3472C135.429 95.3472 137.294 98.318 138.327 99.4521C138.496 99.6388 138.624 99.8595 138.702 100.099C138.779 100.339 138.805 100.593 138.776 100.843C137.832 109.554 128.932 173.184 114.633 103.56Z" fill="url(#paint5_linear)"/>
<path d="M79.5968 244.096C75.6941 237.29 73.3248 227.424 73.7818 213.211C74.5869 188.369 82.034 167.858 103.772 167.858C124.684 167.858 133.688 186.355 133.687 213.554C133.687 231.446 129.233 244.326 122.423 251.61C110.424 250.454 94.9645 248.255 79.5968 244.096Z" fill="url(#paint6_linear)"/>
<defs>
<linearGradient id="paint0_linear" x1="143.125" y1="83.4765" x2="123.278" y2="83.4765" gradientUnits="userSpaceOnUse">
<stop stop-color="#413277"/>
<stop offset="0.28" stop-color="#45377D"/>
<stop offset="0.64" stop-color="#52458C"/>
<stop offset="1" stop-color="#645AA4"/>
</linearGradient>
<linearGradient id="paint1_linear" x1="119.921" y1="252.928" x2="119.921" y2="117.288" gradientUnits="userSpaceOnUse">
<stop stop-color="#EB5950"/>
<stop offset="0.14" stop-color="#EC5F55"/>
<stop offset="0.64" stop-color="#EE7165"/>
<stop offset="1" stop-color="#EF786B"/>
</linearGradient>
<linearGradient id="paint2_linear" x1="174.469" y1="179.859" x2="128.796" y2="134.186" gradientUnits="userSpaceOnUse">
<stop stop-color="#F39327"/>
<stop offset="0.59" stop-color="#F6A241"/>
<stop offset="1" stop-color="#F8AE56"/>
</linearGradient>
<linearGradient id="paint3_linear" x1="17.2954" y1="165.199" x2="81.1111" y2="128.356" gradientUnits="userSpaceOnUse">
<stop stop-color="#F39327"/>
<stop offset="0.11" stop-color="#F49830"/>
<stop offset="0.41" stop-color="#F6A445"/>
<stop offset="0.71" stop-color="#F8AC52"/>
<stop offset="1" stop-color="#F8AE56"/>
</linearGradient>
<linearGradient id="paint4_linear" x1="133.754" y1="129.825" x2="73.0458" y2="129.825" gradientUnits="userSpaceOnUse">
<stop stop-color="#EB5950"/>
<stop offset="0.13" stop-color="#EC5F55"/>
<stop offset="0.64" stop-color="#EE7165"/>
<stop offset="1" stop-color="#EF786B"/>
</linearGradient>
<linearGradient id="paint5_linear" x1="-21211.4" y1="33960.9" x2="-26943.3" y2="35938.6" gradientUnits="userSpaceOnUse">
<stop stop-color="#413277"/>
<stop offset="0.28" stop-color="#45377D"/>
<stop offset="0.64" stop-color="#52458C"/>
<stop offset="1" stop-color="#645AA4"/>
</linearGradient>
<linearGradient id="paint6_linear" x1="84.5044" y1="246.932" x2="125.499" y2="175.927" gradientUnits="userSpaceOnUse">
<stop stop-color="#F39327"/>
<stop offset="0.27" stop-color="#F4972D"/>
<stop offset="0.64" stop-color="#F5A03E"/>
<stop offset="1" stop-color="#F8AE56"/>
</linearGradient>
</defs>
</svg>

<svg xmlns="http://www.w3.org/2000/svg" xmlns:xlink="http://www.w3.org/1999/xlink" width="256" height="256" fill="none"  xmlns:v="https://vecta.io/nano"><path d="M214.016 190.36c7.697-5.3 17.955-6.365 23.949-14.482 2.877.401 4.263-1.472 5.488-3.591-.272-1.513-1.152-3.033.831-4.263.97-.601 1.427-1.89 1.42-3.169-1.085-1.439-.128-3.584-1.689-4.864l-2.11-.256c-1.758-.786-2.933.452-4.249 1.211-1.671 1.555-4.331 1.467-5.76 3.434-.749 1.683-1.488 3.576-3.547 3.82-3.284.384-4.985 2.508-6.389 5.053-.096-.493.384-.64.512-.985 1.116-1.873 2.316-3.43 4.705-3.968 1.738-.395 3.958-1.375 3.24-3.75-.647-2.141-2.697-1.697-4.424-1.18-.753.226-1.623-.084-2.286.512-7.108 1.818-12.462 6.428-17.751 11.143-.707 0-.937.416-.924 1.049.761 2.491 2.706 4.313 3.755 6.643 1.951 2.413 1.765 6.283 5.229 7.643z" fill="#facbb7"/><path d="M232.52 164.691c1.493-1.716 4.458-.832 5.602-3.168.88-1.31 2.117-2.526 1.138-4.326l-.441-.405c-1.07-.102-2.15-.366-3.191.149l-8.695 4.544c1.127 2.355 3.939 1.764 5.587 3.206z" fill="#f9c8b6"/><path d="M232.52 164.691c-1.024-2.519-3.798-2.009-5.588-3.206l-3.219 2.402c2.048.529 5.367-1.376 5.962 1.143.484 2.048-2.932 2.388-4.82 3.101-2.166.816-2.577 2.882-3.546 4.565-.568.954-.549 1.614.804 1.607 1.965-2.267 3.177-5.248 7.079-5.306 2.098-.028 3.052-2.203 3.328-4.306z" fill="#f7b6a7"/><path d="M222.113 174.303c-.64-.348-.787-.945-.804-1.607-.809.699-1.826 1.76-1.137 2.581.922 1.099 1.441-.284 1.941-.974z" fill="#f9c1af"/><path d="M140.229 56.012s-.829-29.704-24.04-31.499c0 0-.147-14.848-5.94-18.652-4.387-2.877-10.638-2.902-15.336-2.625s-19.21-.128-19.763 16.863.118 33.202.698 39.506c.512 5.587 7.875 26.527 8.842 27.904s13.952-8.427 14.368-13.125-.27-7.04.836-8.979 4-4.559 4-9.119l36.335-.273z" fill="#413277"/><path d="M140.229 56.012s6.483 38.638-4.881 49.076-24.403 24.777-24.403 24.777L85.05 110.676s2.747-6.858 1.997-13.44-1.997-9.581-1.997-9.581l5.4-3.11c.014-.732-4.634-6.912-5.021-9.153-.384-2.191 1.247-6.144 5.299-5.294 3.744.785 6.925 8.566 7.642 6.254s.223-8.895 1.39-10.674 4.072-4.747 4.135-9.378l36.335-.288z" fill="#faccb8"/><path d="M143.125 85.789h-19.847s5.376-4.625 11.352-4.625c6.139 0 8.495 4.625 8.495 4.625z" fill="url(#A)"/><path d="M108.915 126.382s-1.329-6.919-6.848-9.344c-5.602-2.456-12.808-5.331-16.21-8.814 0 0-1.379 7.569-6.359 11.46s39.534 17.588 39.534 17.588l8.405-19.761-9.892-1.265s-7.849 1.419-8.63 10.136z" fill="#fffdfe"/><path d="M133.754 126.353s16.059 8.906 22.08 25.967 12.24 32.512 16.053 37.12c0 0 22.074-3.212 33.111-13.847 0 0 16.054 25.486 16.656 36.122 0 0-37.202 53.267-76.885 32.17v9.043s-112.896-.256-126.583-55.757c0 0 12.684-50.971 21.976-59.894s25.117-12.339 31.144-14.525 9.708-4.275 10.547-5.466c0 0 10.719 14.526 23.386 13.641 12.523-.883 15.173-7.954 15.911-9.427s12.603 4.853 12.603 4.853z" fill="url(#B)"/><path d="M135.529 127.453c.819 16.913 17.956 56.158 33.691 57.655l-.603-1.016c-3.64-7.094-8.269-18.984-12.783-31.776-4.648-13.167-15.278-21.478-19.885-24.584l-.42-.279z" fill="url(#C)"/><path d="M70.415 123.063c-6.577 2.2-21.386 5.701-30.253 14.214-5.304 5.094-11.712 23.884-16.237 39.078l-.064.216c6.733-1.107 17.171-13.237 22.636-19.52s14.071-11.203 20.224-18.033 3.712-15.9 3.712-15.9l-.018-.055z" fill="url(#D)"/><path d="M57.581 236.511l1.467-80.231-10.217 75.982s4.449 3.13 8.75 4.249zm87.187 7.375c8.18 4.352 16.256 5.539 23.922 4.685l.018-.04c-17.584-30.655-23.936-75.617-23.936-75.617l-.004 70.972z" fill="#e63548"/><path opacity=".25" d="M114.633 103.56s-9.866-.596-14.731-5.325c0 0-.676 3.648 2.162 6.351s12.183 11.825 11.497 24.426c0 0 6.669-2.833 7.591-7.511s-6.518-17.941-6.518-17.941z" fill="#212120"/><path opacity=".7" d="M120.285 115.873c5.76-.311-5.652-12.313-5.652-12.313s-9.866-.596-14.731-5.325c0 0-.676 3.648 2.162 6.351 2.037 1.939 7.424 7.18 10.047 14.64 0 0 2.253-3.031 8.175-3.353z" fill="#f49d8b"/><path d="M116.145 23.201h-10.7c.256-7.565-1.637-13.321-2.571-15.666a.91.91 0 0 1-.061-.432c.016-.147.066-.287.148-.41s.192-.224.321-.295a.91.91 0 0 1 .421-.112c2.009-.041 7.189.058 7.189.058s.848.768 1.246 1.368c.992 1.503 3.433 5.105 4.007 15.488zm-13.636.135s-1.047-15.488-3.127-16.721c0 0-8.694-.486-13.163 7.58-1.315 2.372-1.909 5.075-1.909 7.788v8.585s8.036-6.4 18.199-7.232z" fill="#7c61a7"/><path d="M133.754 126.353s-11.867-6.325-12.603-4.852-3.388 8.544-15.911 9.428c-12.672.884-23.387-13.641-23.387-13.641-.84 1.19-2.973 2.57-8.808 5.233l.077.086c7.762 8.67 17.69 19.775 34.255 19.756 15.755-.017 26.328-15.943 26.328-15.943l.048-.067z" fill="url(#E)"/><path d="M114.633 103.56s7.478-1.104 11.278-4.045 5.002-4.168 7.296-4.168c2.222 0 4.087 2.971 5.12 4.105a1.79 1.79 0 0 1 .375.647 1.77 1.77 0 0 1 .074.744c-.944 8.711-9.844 72.341-24.143 2.717z" fill="url(#F)"/><path d="M79.597 244.096c-3.903-6.806-6.272-16.672-5.815-30.885.805-24.842 8.252-45.353 29.99-45.353 20.912 0 29.916 18.497 29.915 45.696 0 17.892-4.454 30.772-11.264 38.056-11.999-1.156-27.458-3.355-42.826-7.514z" fill="url(#G)"/><defs><linearGradient id="A" x1="143.125" y1="83.477" x2="123.278" y2="83.477" xlink:href="#H"><stop stop-color="#413277"/><stop offset=".28" stop-color="#45377d"/><stop offset=".64" stop-color="#52458c"/><stop offset="1" stop-color="#645aa4"/></linearGradient><linearGradient id="B" x1="119.921" y1="252.928" x2="119.921" y2="117.288" xlink:href="#H"><stop stop-color="#eb5950"/><stop offset=".14" stop-color="#ec5f55"/><stop offset=".64" stop-color="#ee7165"/><stop offset="1" stop-color="#ef786b"/></linearGradient><linearGradient id="C" x1="174.469" y1="179.859" x2="128.796" y2="134.186" xlink:href="#H"><stop stop-color="#f39327"/><stop offset=".59" stop-color="#f6a241"/><stop offset="1" stop-color="#f8ae56"/></linearGradient><linearGradient id="D" x1="17.295" y1="165.199" x2="81.111" y2="128.356" xlink:href="#H"><stop stop-color="#f39327"/><stop offset=".11" stop-color="#f49830"/><stop offset=".41" stop-color="#f6a445"/><stop offset=".71" stop-color="#f8ac52"/><stop offset="1" stop-color="#f8ae56"/></linearGradient><linearGradient id="E" x1="133.754" y1="129.825" x2="73.046" y2="129.825" xlink:href="#H"><stop stop-color="#eb5950"/><stop offset=".13" stop-color="#ec5f55"/><stop offset=".64" stop-color="#ee7165"/><stop offset="1" stop-color="#ef786b"/></linearGradient><linearGradient id="F" x1="-21211.4" y1="33960.9" x2="-26943.3" y2="35938.6" xlink:href="#H"><stop stop-color="#413277"/><stop offset=".28" stop-color="#45377d"/><stop offset=".64" stop-color="#52458c"/><stop offset="1" stop-color="#645aa4"/></linearGradient><linearGradient id="G" x1="84.504" y1="246.932" x2="125.499" y2="175.927" xlink:href="#H"><stop stop-color="#f39327"/><stop offset=".27" stop-color="#f4972d"/><stop offset=".64" stop-color="#f5a03e"/><stop offset="1" stop-color="#f8ae56"/></linearGradient><linearGradient id="H" gradientUnits="userSpaceOnUse"/></defs></svg>
